assets/images/img-guide-navbar.svg

<svg xmlns="http://www.w3.org/2000/svg" width="96" height="96" fill="none" viewBox="0 0 96 96"><g clip-path="url(#clip0_1397_77424)"><rect width="96" height="96" fill="#464C59"/><mask id="path-3-inside-2_1397_77424" fill="#fff"><path d="M28 34C28 29.5817 31.5817 26 36 26H250C254.418 26 258 29.5817 258 34V70H28V34Z"/></mask><path fill="#FAFAFA" d="M28 34C28 29.5817 31.5817 26 36 26H250C254.418 26 258 29.5817 258 34V70H28V34Z"/><g clip-path="url(#clip1_1397_77424)"><path fill="#56585D" fill-rule="evenodd" d="M50 44.25C47.9289 44.25 46.25 45.9289 46.25 48V53C46.25 55.0711 47.9289 56.75 50 56.75C52.0711 56.75 53.75 55.0711 53.75 53V48C53.75 45.9289 52.0711 44.25 50 44.25ZM47.3438 49.1687H52.6562V51.825H47.3438V49.1687ZM50 55.6562C48.5358 55.6494 47.3506 54.4642 47.3438 53V52.9187H52.6562V53C52.6494 54.4642 51.4642 55.6494 50 55.6562ZM52.6562 48.075H47.3438V48C47.3438 46.533 48.533 45.3438 50 45.3438C51.467 45.3438 52.6562 46.533 52.6562 48V48.075ZM59.1625 50.0063L55 46.125V51.8125C55 53.1932 56.1193 54.3125 57.5 54.3125C58.8807 54.3125 60 53.1932 60 51.8125C59.9963 51.1174 59.6907 50.4582 59.1625 50.0063ZM57.5 53.2188C56.7234 53.2188 56.0938 52.5892 56.0938 51.8125V48.625L58.4188 50.7937C58.7017 51.0317 58.868 51.3804 58.875 51.75C58.8919 52.1283 58.7555 52.4974 58.4967 52.7739C58.2379 53.0503 57.8786 53.2107 57.5 53.2188ZM40 51.8125C40 53.1932 41.1193 54.3125 42.5 54.3125C43.8807 54.3125 45 53.1932 45 51.8125V46.125L40.8375 50.0063C40.3126 50.4607 40.0077 51.1183 40 51.8125ZM41.55 50.8375L43.9062 48.625V51.8125C43.9062 52.5892 43.2767 53.2188 42.5 53.2188C41.7233 53.2188 41.0938 52.5892 41.0938 51.8125C41.0953 51.4363 41.2621 51.0798 41.55 50.8375ZM49.375 41.4375C49.375 40.2294 48.3956 39.25 47.1875 39.25C45.9794 39.25 45 40.2294 45 41.4375C45 42.6456 45.9794 43.625 47.1875 43.625C48.3956 43.625 49.375 42.6456 49.375 41.4375ZM46.0938 41.4375C46.0938 40.8334 46.5834 40.3438 47.1875 40.3438C47.7916 40.3438 48.2812 40.8334 48.2812 41.4375C48.2812 42.0416 47.7916 42.5312 47.1875 42.5312C46.5863 42.5245 46.1005 42.0387 46.0938 41.4375ZM52.8125 39.25C51.6044 39.25 50.625 40.2294 50.625 41.4375C50.625 42.6456 51.6044 43.625 52.8125 43.625C54.0206 43.625 55 42.6456 55 41.4375C55 40.2294 54.0206 39.25 52.8125 39.25ZM52.8125 42.5312C52.2084 42.5312 51.7188 42.0416 51.7188 41.4375C51.7188 40.8334 52.2084 40.3438 52.8125 40.3438C53.4166 40.3438 53.9062 40.8334 53.9062 41.4375C53.8995 42.0387 53.4137 42.5245 52.8125 42.5312Z" clip-rule="evenodd"/></g><path fill="#0D1117" d="M75.808 53V42.904H72.464V41.8H80.496V42.904H77.152V53H75.808ZM84.4356 53.192C83.689 53.192 83.017 53.0213 82.4196 52.68C81.8223 52.3387 81.3476 51.8587 80.9956 51.24C80.6543 50.6107 80.4836 49.8747 80.4836 49.032C80.4836 48.1893 80.6596 47.4587 81.0116 46.84C81.3636 46.2107 81.8383 45.7253 82.4356 45.384C83.0436 45.0427 83.721 44.872 84.4676 44.872C85.2143 44.872 85.8863 45.0427 86.4836 45.384C87.081 45.7253 87.5503 46.2107 87.8916 46.84C88.2436 47.4587 88.4196 48.1893 88.4196 49.032C88.4196 49.8747 88.2436 50.6107 87.8916 51.24C87.5396 51.8587 87.0596 52.3387 86.4516 52.68C85.8543 53.0213 85.1823 53.192 84.4356 53.192ZM84.4356 52.04C84.8943 52.04 85.321 51.928 85.7156 51.704C86.1103 51.48 86.4303 51.144 86.6756 50.696C86.921 50.248 87.0436 49.6933 87.0436 49.032C87.0436 48.3707 86.921 47.816 86.6756 47.368C86.441 46.92 86.1263 46.584 85.7316 46.36C85.337 46.136 84.9156 46.024 84.4676 46.024C84.009 46.024 83.5823 46.136 83.1876 46.36C82.793 46.584 82.473 46.92 82.2276 47.368C81.9823 47.816 81.8596 48.3707 81.8596 49.032C81.8596 49.6933 81.9823 50.248 82.2276 50.696C82.473 51.144 82.7876 51.48 83.1716 51.704C83.5663 51.928 83.9876 52.04 84.4356 52.04ZM98.5708 53.192C97.7494 53.192 97.0348 53.0427 96.4268 52.744C95.8188 52.4453 95.3494 52.0293 95.0188 51.496C94.6881 50.9627 94.5228 50.344 94.5228 49.64H95.9308C95.9308 50.0773 96.0321 50.4827 96.2348 50.856C96.4374 51.2187 96.7308 51.512 97.1148 51.736C97.5094 51.9493 97.9948 52.056 98.5708 52.056C99.3281 52.056 99.9148 51.8747 100.331 51.512C100.747 51.1493 100.955 50.696 100.955 50.152C100.955 49.704 100.859 49.3467 100.667 49.08C100.475 48.8027 100.213 48.5787 99.8828 48.408C99.5628 48.2373 99.1894 48.088 98.7628 47.96C98.3468 47.832 97.9094 47.688 97.4508 47.528C96.5868 47.2293 95.9468 46.8613 95.5308 46.424C95.1148 45.976 94.9068 45.3947 94.9068 44.68C94.8961 44.0827 95.0348 43.5547 95.3228 43.096C95.6108 42.6267 96.0161 42.264 96.5388 42.008C97.0721 41.7413 97.7014 41.608 98.4268 41.608C99.1414 41.608 99.7601 41.7413 100.283 42.008C100.816 42.2747 101.227 42.6427 101.515 43.112C101.813 43.5813 101.968 44.1147 101.979 44.712H100.571C100.571 44.4027 100.491 44.0987 100.331 43.8C100.171 43.4907 99.9254 43.24 99.5948 43.048C99.2748 42.856 98.8694 42.76 98.3788 42.76C97.7708 42.7493 97.2694 42.904 96.8748 43.224C96.4908 43.544 96.2988 43.9867 96.2988 44.552C96.2988 45.032 96.4321 45.4 96.6988 45.656C96.9761 45.912 97.3601 46.1253 97.8508 46.296C98.3414 46.456 98.9068 46.6427 99.5468 46.856C100.08 47.048 100.56 47.272 100.987 47.528C101.413 47.784 101.744 48.1147 101.979 48.52C102.224 48.9253 102.347 49.4427 102.347 50.072C102.347 50.6053 102.208 51.112 101.931 51.592C101.653 52.0613 101.232 52.4453 100.667 52.744C100.112 53.0427 99.4134 53.192 98.5708 53.192ZM105.189 43.304C104.922 43.304 104.698 43.2187 104.517 43.048C104.346 42.8667 104.261 42.6427 104.261 42.376C104.261 42.12 104.346 41.9067 104.517 41.736C104.698 41.5653 104.922 41.48 105.189 41.48C105.445 41.48 105.663 41.5653 105.845 41.736C106.026 41.9067 106.117 42.12 106.117 42.376C106.117 42.6427 106.026 42.8667 105.845 43.048C105.663 43.2187 105.445 43.304 105.189 43.304ZM104.517 53V45.064H105.861V53H104.517ZM111.537 50.504C111.089 50.504 110.678 50.4453 110.305 50.328L109.505 51.08C109.622 51.1653 109.766 51.24 109.937 51.304C110.118 51.3573 110.374 51.4107 110.705 51.464C111.036 51.5067 111.5 51.5547 112.097 51.608C113.164 51.6827 113.926 51.928 114.385 52.344C114.844 52.76 115.073 53.304 115.073 53.976C115.073 54.4347 114.945 54.872 114.689 55.288C114.444 55.704 114.06 56.0453 113.537 56.312C113.025 56.5787 112.364 56.712 111.553 56.712C110.838 56.712 110.204 56.616 109.649 56.424C109.094 56.2427 108.662 55.96 108.353 55.576C108.044 55.2027 107.889 54.728 107.889 54.152C107.889 53.8533 107.969 53.528 108.129 53.176C108.289 52.8347 108.588 52.5093 109.025 52.2C108.79 52.104 108.588 52.0027 108.417 51.896C108.257 51.7787 108.108 51.6507 107.969 51.512V51.144L109.329 49.8C108.7 49.2667 108.385 48.5627 108.385 47.688C108.385 47.1653 108.508 46.6907 108.753 46.264C108.998 45.8373 109.356 45.5013 109.825 45.256C110.294 45 110.865 44.872 111.537 44.872C111.996 44.872 112.412 44.936 112.785 45.064H115.713V46.072L114.225 46.136C114.534 46.584 114.689 47.1013 114.689 47.688C114.689 48.2107 114.561 48.6853 114.305 49.112C114.06 49.5387 113.702 49.88 113.233 50.136C112.774 50.3813 112.209 50.504 111.537 50.504ZM111.537 49.4C112.102 49.4 112.55 49.256 112.881 48.968C113.222 48.6693 113.393 48.2427 113.393 47.688C113.393 47.144 113.222 46.728 112.881 46.44C112.55 46.1413 112.102 45.992 111.537 45.992C110.961 45.992 110.502 46.1413 110.161 46.44C109.83 46.728 109.665 47.144 109.665 47.688C109.665 48.2427 109.83 48.6693 110.161 48.968C110.502 49.256 110.961 49.4 111.537 49.4ZM109.201 54.024C109.201 54.5573 109.425 54.952 109.873 55.208C110.321 55.4747 110.881 55.608 111.553 55.608C112.214 55.608 112.742 55.464 113.137 55.176C113.542 54.888 113.745 54.504 113.745 54.024C113.745 53.6827 113.606 53.384 113.329 53.128C113.052 52.8827 112.54 52.7387 111.793 52.696C111.206 52.6533 110.7 52.6 110.273 52.536C109.836 52.7707 109.548 53.0213 109.409 53.288C109.27 53.5653 109.201 53.8107 109.201 54.024ZM117.429 53V45.064H118.645L118.725 46.488C118.981 45.9867 119.349 45.592 119.829 45.304C120.309 45.016 120.853 44.872 121.461 44.872C122.4 44.872 123.146 45.16 123.701 45.736C124.266 46.3013 124.549 47.176 124.549 48.36V53H123.205V48.504C123.205 46.8507 122.522 46.024 121.157 46.024C120.474 46.024 119.904 46.2747 119.445 46.776C118.997 47.2667 118.773 47.9707 118.773 48.888V53H117.429Z"/><path fill="#DBDBDC" d="M27 34C27 29.0294 31.0294 25 36 25H250C254.971 25 259 29.0294 259 34H257C257 30.134 253.866 27 250 27H36C32.134 27 29 30.134 29 34H27ZM258 70H28H258ZM27 70V34C27 29.0294 31.0294 25 36 25V27C32.134 27 29 30.134 29 34V70H27ZM250 25C254.971 25 259 29.0294 259 34V70H257V34C257 30.134 253.866 27 250 27V25Z" mask="url(#path-3-inside-2_1397_77424)"/><path fill="#DBDBDC" d="M650 69H20V71H650V69Z" mask="url(#path-1-inside-1_1397_77424)"/></g><defs><clipPath id="clip0_1397_77424"><rect width="96" height="96" fill="#fff"/></clipPath><clipPath id="clip1_1397_77424"><rect width="20" height="20" fill="#fff" transform="translate(40 38)"/></clipPath></defs></svg>

<svg xmlns="http://www.w3.org/2000/svg" width="96" height="96" fill="none" viewBox="0 0 96 96"><g clip-path="url(#a)"><path fill="#464C59" d="M0 0h96v96H0z"/><mask id="c" fill="#fff"><path d="M28 34a8 8 0 0 1 8-8h214a8 8 0 0 1 8 8v36H28z"/></mask><path fill="#FAFAFA" d="M28 34a8 8 0 0 1 8-8h214a8 8 0 0 1 8 8v36H28z"/><g clip-path="url(#b)"><path fill="#56585D" fill-rule="evenodd" d="M50 44.25A3.75 3.75 0 0 0 46.25 48v5a3.75 3.75 0 1 0 7.5 0v-5A3.75 3.75 0 0 0 50 44.25m-2.656 4.919h5.312v2.656h-5.312zM50 55.656A2.67 2.67 0 0 1 47.344 53v-.081h5.312V53A2.67 2.67 0 0 1 50 55.656m2.656-7.581h-5.312V48a2.656 2.656 0 1 1 5.312 0zm6.507 1.931L55 46.125v5.688a2.5 2.5 0 0 0 5 0 2.4 2.4 0 0 0-.837-1.807M57.5 53.22c-.777 0-1.406-.63-1.406-1.407v-3.187l2.325 2.169c.283.238.449.586.456.956A1.406 1.406 0 0 1 57.5 53.22M40 51.812a2.5 2.5 0 0 0 5 0v-5.687l-4.163 3.881A2.42 2.42 0 0 0 40 51.812m1.55-.974 2.356-2.213v3.188a1.406 1.406 0 1 1-2.812 0 1.28 1.28 0 0 1 .456-.976m7.825-9.4a2.188 2.188 0 1 0-4.375 0 2.188 2.188 0 0 0 4.375 0m-3.281 0a1.094 1.094 0 1 1 1.093 1.093 1.106 1.106 0 0 1-1.093-1.093m6.718-2.188a2.188 2.188 0 1 0 0 4.375 2.188 2.188 0 0 0 0-4.375m0 3.281a1.094 1.094 0 1 1 1.094-1.093 1.106 1.106 0 0 1-1.093 1.093" clip-rule="evenodd"/></g><path fill="#0D1117" d="M75.808 53V42.904h-3.344V41.8h8.032v1.104h-3.344V53zm8.628.192q-1.12 0-2.016-.512a3.77 3.77 0 0 1-1.424-1.44q-.512-.944-.512-2.208t.528-2.192a3.74 3.74 0 0 1 1.424-1.456 4.1 4.1 0 0 1 2.032-.512q1.119 0 2.016.512a3.63 3.63 0 0 1 1.408 1.456q.528.929.528 2.192 0 1.265-.528 2.208a3.74 3.74 0 0 1-1.44 1.44q-.897.512-2.016.512m0-1.152a2.55 2.55 0 0 0 1.28-.336q.591-.336.96-1.008.368-.672.368-1.664t-.368-1.664q-.353-.672-.944-1.008a2.5 2.5 0 0 0-1.264-.336 2.55 2.55 0 0 0-1.28.336q-.593.336-.96 1.008-.368.672-.368 1.664t.368 1.664.944 1.008a2.5 2.5 0 0 0 1.264.336m14.135 1.152q-1.233 0-2.144-.448-.913-.449-1.408-1.248-.496-.8-.496-1.856h1.408q0 .656.304 1.216.303.544.88.88.591.32 1.456.32 1.136 0 1.76-.544a1.73 1.73 0 0 0 .624-1.36q0-.672-.288-1.072a2.1 2.1 0 0 0-.784-.672 6 6 0 0 0-1.12-.448 37 37 0 0 1-1.312-.432q-1.296-.448-1.92-1.104-.624-.673-.624-1.744-.016-.896.416-1.584.432-.705 1.216-1.088.8-.4 1.888-.4 1.071 0 1.856.4a2.96 2.96 0 0 1 1.232 1.104 3.03 3.03 0 0 1 .464 1.6h-1.408q0-.464-.24-.912-.24-.465-.736-.752-.48-.288-1.216-.288-.913-.015-1.504.464-.576.48-.576 1.328 0 .72.4 1.104.416.384 1.152.64.736.24 1.696.56a8 8 0 0 1 1.44.672q.64.384.992.992.368.608.368 1.552 0 .8-.416 1.52-.417.704-1.264 1.152-.833.448-2.096.448m6.618-9.888a.94.94 0 0 1-.672-.256.94.94 0 0 1-.256-.672q0-.385.256-.64a.94.94 0 0 1 .672-.256q.383 0 .656.256.272.255.272.64 0 .4-.272.672a.92.92 0 0 1-.656.256M104.517 53v-7.936h1.344V53zm7.02-2.496q-.672 0-1.232-.176l-.8.752q.175.128.432.224.271.08.768.16.497.064 1.392.144 1.6.112 2.288.736t.688 1.632q0 .688-.384 1.312-.368.624-1.152 1.024-.768.4-1.984.4-1.072 0-1.904-.288-.833-.272-1.296-.848-.464-.56-.464-1.424 0-.448.24-.976.24-.512.896-.976a4 4 0 0 1-.608-.304 4 4 0 0 1-.448-.384v-.368l1.36-1.344q-.944-.8-.944-2.112 0-.784.368-1.424a2.6 2.6 0 0 1 1.072-1.008q.704-.384 1.712-.384.689 0 1.248.192h2.928v1.008l-1.488.064q.464.672.464 1.552 0 .784-.384 1.424a2.7 2.7 0 0 1-1.072 1.024q-.688.368-1.696.368m0-1.104q.848 0 1.344-.432.512-.448.512-1.28 0-.816-.512-1.248-.496-.448-1.344-.448-.864 0-1.376.448-.496.432-.496 1.248 0 .832.496 1.28.512.432 1.376.432m-2.336 4.624q0 .8.672 1.184.672.4 1.68.4.992 0 1.584-.432.608-.432.608-1.152 0-.512-.416-.896-.416-.368-1.536-.432a20 20 0 0 1-1.52-.16q-.655.352-.864.752-.208.416-.208.736M117.429 53v-7.936h1.216l.08 1.424a2.9 2.9 0 0 1 1.104-1.184 3.1 3.1 0 0 1 1.632-.432q1.408 0 2.24.864.848.848.848 2.624V53h-1.344v-4.496q0-2.48-2.048-2.48-1.024 0-1.712.752-.672.736-.672 2.112V53z"/><path fill="#DBDBDC" d="M27 34a9 9 0 0 1 9-9h214a9 9 0 0 1 9 9h-2a7 7 0 0 0-7-7H36a7 7 0 0 0-7 7zm231 36H28zM27 70V34a9 9 0 0 1 9-9v2a7 7 0 0 0-7 7v36zm223-45a9 9 0 0 1 9 9v36h-2V34a7 7 0 0 0-7-7z" mask="url(#c)"/><path fill="#DBDBDC" d="M650 69H20v2h630z" mask="url(#path-1-inside-1_1397_77424)"/></g><defs><clipPath id="a"><path fill="#fff" d="M0 0h96v96H0z"/></clipPath><clipPath id="b"><path fill="#fff" d="M40 38h20v20H40z"/></clipPath></defs></svg>
